X: 136
T:At the Fair
K:C
M:2/4
L:1/8
R:Reel
"C"ce/2c/2 ge/2c/2|"C"ce/2c/2 "G7"B/2c/2d/2e/2|"C"ce/2c/2 gf/2e/
2|
"Dm"f/2e/2d/2c/2 "G"B/2c/2"E7"d/2e/2|!
"C"ce/2c/2 ge/2c/2|"C"ce/2c/2 "G7"B/2c/2d/2e/2|"Am"ce/2c/2 "Em"gf/2e/2|
"Dm"f/2e/2d/2c/2 "G"B/2c/2"E7"d/2e/2|!
"Am"ce/2c/2 "Em"Be/2B/2|"F"Ac/2A/2 "C"GA/2G/2|"G7"FG/2F/2 "C"E/2G/2c/2e/
2|
"D7"d/2A/2B/2c/2 "G"e/2d/2B/2G/2|!
"Am"ce/2c/2 "Em"B/2B/2e/2B/2|"F"Ac/2A/2 "C"GA/2G/2|"G7"FG/2F/2 "C"E/2G/2
c/2e/2|
1"F"A/2d/2"C"B/2G/2 "C"c"'"G:||2"F"A/2d/2"G"B/2G/2 "C"cz||
% <A name="D1X137">
